src/assets/images/branding/microsoft.svg

<svg fill="none" height="44" viewBox="0 0 205 44" width="205" xmlns="http://www.w3.org/2000/svg"><path d="m205 19.7987v-3.6053h-4.477v-5.6047l-.151.0464-4.205 1.2866-.083.0252v4.2467h-6.637v-2.3658c0-1.1016.246-1.9446.732-2.5068.482-.5554 1.171-.8378 2.051-.8378.632 0 1.286.1489 1.945.4426l.165.0738v-3.79684l-.077-.02855c-.615-.22092-1.451-.33217-2.487-.33217-1.306 0-2.492.28418-3.527.84737-1.035.56399-1.85 1.36912-2.42 2.39279-.569 1.0225-.857 2.2034-.857 3.5102v2.601h-3.118v3.6053h3.118v15.1882h4.475v-15.1882h6.637v9.6518c0 3.9751 1.875 5.9895 5.573 5.9895.607 0 1.247-.0712 1.9-.2106.665-.1432 1.117-.2862 1.384-.4389l.059-.0349v-3.6385l-.182.1204c-.243.1618-.546.294-.9.3924-.356.1002-.654.1503-.884.1503-.866 0-1.507-.2334-1.905-.694-.402-.4649-.606-1.2777-.606-2.4148v-8.8727zm-33.14 11.9821c-1.624 0-2.905-.5386-3.807-1.5995-.908-1.0663-1.368-2.5866-1.368-4.5181 0-1.9928.46-3.5525 1.368-4.6376.903-1.078 2.172-1.6251 3.771-1.6251 1.552 0 2.787.5225 3.672 1.5539.889 1.0368 1.34 2.584 1.34 4.6 0 2.0407-.424 3.6084-1.261 4.657-.831 1.0407-2.081 1.5694-3.715 1.5694zm.199-16.0401c-3.099 0-5.56.9081-7.315 2.699-1.754 1.7911-2.643 4.2697-2.643 7.3677 0 2.9425.868 5.3093 2.58 7.0336 1.712 1.7249 4.042 2.5986 6.925 2.5986 3.004 0 5.416-.9207 7.171-2.7365 1.754-1.8137 2.642-4.2689 2.642-7.2945 0-2.9885-.834-5.3729-2.479-7.0857-1.646-1.7136-3.962-2.5822-6.881-2.5822zm-17.174 0c-2.108 0-3.851.5392-5.183 1.6023-1.341 1.0695-2.02 2.4721-2.02 4.1694 0 .8823.146 1.666.435 2.3308.291.6669.74 1.2541 1.337 1.7469.593.4888 1.508 1.0008 2.721 1.5218 1.019.4194 1.779.7742 2.262 1.0538.472.274.807.5495.996.8178.184.2626.277.6219.277 1.0653 0 1.2626-.945 1.877-2.891 1.877-.722 0-1.545-.1507-2.447-.4478-.895-.2926-1.74-.721-2.505-1.2704l-.186-.1332v4.3086l.068.0317c.634.2924 1.432.5388 2.373.7328.939.1941 1.792.2929 2.534.2929 2.287 0 4.129-.5418 5.473-1.6113 1.353-1.0768 2.039-2.5125 2.039-4.2685 0-1.2668-.369-2.3532-1.097-3.2293-.722-.869-1.976-1.6667-3.725-2.3719-1.393-.5593-2.286-1.0235-2.654-1.3799-.355-.3442-.535-.8311-.535-1.4476 0-.5465.222-.9844.679-1.339.46-.3563 1.101-.5376 1.904-.5376.746 0 1.509.1178 2.268.3486.758.2309 1.424.54 1.979.9182l.183.1249v-4.0871l-.07-.0301c-.513-.22-1.189-.4081-2.01-.5608-.818-.1517-1.56-.2283-2.205-.2283zm-18.87 16.0401c-1.624 0-2.905-.5386-3.807-1.5995-.909-1.0663-1.368-2.5862-1.368-4.5181 0-1.9928.46-3.5525 1.369-4.6376.902-1.078 2.17-1.6251 3.77-1.6251 1.551 0 2.786.5225 3.671 1.5539.89 1.0368 1.341 2.584 1.341 4.6 0 2.0407-.425 3.6084-1.261 4.657-.831 1.0407-2.081 1.5694-3.715 1.5694zm.199-16.0401c-3.099 0-5.561.9081-7.315 2.699-1.754 1.7911-2.644 4.2697-2.644 7.3677 0 2.9437.869 5.3093 2.581 7.0336 1.712 1.7249 4.042 2.5986 6.925 2.5986 3.004 0 5.417-.9207 7.171-2.7365 1.754-1.8137 2.643-4.2689 2.643-7.2945 0-2.9885-.835-5.3729-2.48-7.0857-1.647-1.7136-3.962-2.5822-6.881-2.5822zm-16.752 3.7074v-3.2547h-4.42v18.7931h4.42v-9.6134c0-1.6346.371-2.9776 1.102-3.9919.722-1.0023 1.684-1.5101 2.859-1.5101.398 0 .845.0656 1.329.1955.48.1291.827.2693 1.031.4168l.186.1347v-4.4568l-.072-.0307c-.411-.1749-.994-.2632-1.731-.2632-1.11 0-2.105.357-2.956 1.0598-.748.6177-1.288 1.4647-1.701 2.5209zm-12.337-3.7074c-2.028 0-3.837.4349-5.376 1.2922-1.542.8592-2.7341 2.086-3.5454 3.6459-.8077 1.5561-1.2178 3.3738-1.2178 5.4009 0 1.7756.3976 3.4051 1.1835 4.8413.7863 1.4385 1.8987 2.5639 3.3077 3.3444 1.407.7796 3.033 1.1748 4.833 1.1748 2.101 0 3.895-.42 5.333-1.2484l.058-.0333v-4.05l-.186.1356c-.651.4746-1.379.8534-2.163 1.1262-.781.2727-1.493.4105-2.118.4105-1.734 0-3.127-.5427-4.138-1.6128-1.013-1.0715-1.526-2.576-1.526-4.4693 0-1.9051.535-3.4483 1.591-4.587 1.052-1.1353 2.447-1.7112 4.146-1.7112 1.453 0 2.869.492 4.209 1.4637l.185.1346v-4.2674l-.06-.0337c-.504-.2822-1.192-.5152-2.045-.6919-.85-.1763-1.681-.2651-2.471-.2651zm-13.1838.4529h-4.4207v18.7929h4.4207zm-2.1652-8.00584c-.7275 0-1.3621.24768-1.8835.7385-.5235.4922-.789 1.11194-.789 1.84324 0 .7199.2623 1.3283.7809 1.8074.5152.4777 1.1518.7199 1.8918.7199.7399 0 1.3789-.2422 1.9002-.7191.5248-.4799.7909-1.0881.7909-1.8082 0-.7058-.259-1.31912-.7693-1.82341-.5098-.50331-1.1567-.75833-1.922-.75833zm-11.0298 6.61934v20.1794h4.5115v-26.22345h-6.2441l-7.9367 19.47795-7.7021-19.47795h-6.4983v26.22325h4.2396v-20.1812h.1455l8.1332 20.1814h3.1995l8.0063-20.1794z" fill="#fff"/><path d="m20.7961 20.7961h-20.7961v-20.7961h20.7961z" fill="#f1511b"/><path d="m43.7572 20.7961h-20.7958v-20.7961h20.7958z" fill="#80cc28"/><path d="m20.7955 43.7655h-20.7955v-20.7959h20.7955z" fill="#00adef"/><path d="m43.7572 43.7655h-20.7958v-20.7959h20.7958z" fill="#fbbc09"/></svg>

<svg width="205" height="44" viewBox="0 0 205 44" fill="none" xmlns="http://www.w3.org/2000/svg">
  <path d="M205 19.7987V16.1934H200.523V10.5887L200.372 10.6351L196.167 11.9217L196.084 11.9469V16.1936H189.447V13.8278C189.447 12.7262 189.693 11.8832 190.179 11.321C190.661 10.7656 191.35 10.4832 192.23 10.4832C192.862 10.4832 193.516 10.6321 194.175 10.9258L194.34 10.9996V7.20276L194.263 7.17421C193.648 6.95329 192.812 6.84204 191.776 6.84204C190.47 6.84204 189.284 7.12622 188.249 7.68941C187.214 8.2534 186.399 9.05853 185.829 10.0822C185.26 11.1047 184.972 12.2856 184.972 13.5924V16.1934H181.854V19.7987H184.972V34.9869H189.447V19.7987H196.084V29.4505C196.084 33.4256 197.959 35.44 201.657 35.44C202.264 35.44 202.904 35.3688 203.557 35.2294C204.222 35.0862 204.674 34.9432 204.941 34.7905L205 34.7556V31.1171L204.818 31.2375C204.575 31.3993 204.272 31.5315 203.918 31.6299C203.562 31.7301 203.264 31.7802 203.034 31.7802C202.168 31.7802 201.527 31.5468 201.129 31.0862C200.727 30.6213 200.523 29.8085 200.523 28.6714V19.7987H205ZM171.86 31.7808C170.236 31.7808 168.955 31.2422 168.053 30.1813C167.145 29.115 166.685 27.5947 166.685 25.6632C166.685 23.6704 167.145 22.1107 168.053 21.0256C168.956 19.9476 170.225 19.4005 171.824 19.4005C173.376 19.4005 174.611 19.923 175.496 20.9544C176.385 21.9912 176.836 23.5384 176.836 25.5544C176.836 27.5951 176.412 29.1628 175.575 30.2114C174.744 31.2521 173.494 31.7808 171.86 31.7808ZM172.059 15.7407C168.96 15.7407 166.499 16.6488 164.744 18.4397C162.99 20.2308 162.101 22.7094 162.101 25.8074C162.101 28.7499 162.969 31.1167 164.681 32.841C166.393 34.5659 168.723 35.4396 171.606 35.4396C174.61 35.4396 177.022 34.5189 178.777 32.7031C180.531 30.8894 181.419 28.4342 181.419 25.4086C181.419 22.4201 180.585 20.0357 178.94 18.3229C177.294 16.6093 174.978 15.7407 172.059 15.7407ZM154.885 15.7407C152.777 15.7407 151.034 16.2799 149.702 17.343C148.361 18.4125 147.682 19.8151 147.682 21.5124C147.682 22.3947 147.828 23.1784 148.117 23.8432C148.408 24.5101 148.857 25.0973 149.454 25.5901C150.047 26.0789 150.962 26.5909 152.175 27.1119C153.194 27.5313 153.954 27.8861 154.437 28.1657C154.909 28.4397 155.244 28.7152 155.433 28.9835C155.617 29.2461 155.71 29.6054 155.71 30.0488C155.71 31.3114 154.765 31.9258 152.819 31.9258C152.097 31.9258 151.274 31.7751 150.372 31.478C149.477 31.1854 148.632 30.757 147.867 30.2076L147.681 30.0744V34.383L147.749 34.4147C148.383 34.7071 149.181 34.9535 150.122 35.1475C151.061 35.3416 151.914 35.4404 152.656 35.4404C154.943 35.4404 156.785 34.8986 158.129 33.8291C159.482 32.7523 160.168 31.3166 160.168 29.5606C160.168 28.2938 159.799 27.2074 159.071 26.3313C158.349 25.4623 157.095 24.6646 155.346 23.9594C153.953 23.4001 153.06 22.9359 152.692 22.5795C152.337 22.2353 152.157 21.7484 152.157 21.1319C152.157 20.5854 152.379 20.1475 152.836 19.7929C153.296 19.4366 153.937 19.2553 154.74 19.2553C155.486 19.2553 156.249 19.3731 157.008 19.6039C157.766 19.8348 158.432 20.1439 158.987 20.5221L159.17 20.647V16.5599L159.1 16.5298C158.587 16.3098 157.911 16.1217 157.09 15.969C156.272 15.8173 155.53 15.7407 154.885 15.7407ZM136.015 31.7808C134.391 31.7808 133.11 31.2422 132.208 30.1813C131.299 29.115 130.84 27.5951 130.84 25.6632C130.84 23.6704 131.3 22.1107 132.209 21.0256C133.111 19.9476 134.379 19.4005 135.979 19.4005C137.53 19.4005 138.765 19.923 139.65 20.9544C140.54 21.9912 140.991 23.5384 140.991 25.5544C140.991 27.5951 140.566 29.1628 139.73 30.2114C138.899 31.2521 137.649 31.7808 136.015 31.7808ZM136.214 15.7407C133.115 15.7407 130.653 16.6488 128.899 18.4397C127.145 20.2308 126.255 22.7094 126.255 25.8074C126.255 28.7511 127.124 31.1167 128.836 32.841C130.548 34.5659 132.878 35.4396 135.761 35.4396C138.765 35.4396 141.178 34.5189 142.932 32.7031C144.686 30.8894 145.575 28.4342 145.575 25.4086C145.575 22.4201 144.74 20.0357 143.095 18.3229C141.448 16.6093 139.133 15.7407 136.214 15.7407ZM119.462 19.4481V16.1934H115.042V34.9865H119.462V25.3731C119.462 23.7385 119.833 22.3955 120.564 21.3812C121.286 20.3789 122.248 19.8711 123.423 19.8711C123.821 19.8711 124.268 19.9367 124.752 20.0666C125.232 20.1957 125.579 20.3359 125.783 20.4834L125.969 20.6181V16.1613L125.897 16.1306C125.486 15.9557 124.903 15.8674 124.166 15.8674C123.056 15.8674 122.061 16.2244 121.21 16.9272C120.462 17.5449 119.922 18.3919 119.509 19.4481H119.462ZM107.125 15.7407C105.097 15.7407 103.288 16.1756 101.749 17.0329C100.207 17.8921 99.0149 19.1189 98.2036 20.6788C97.3959 22.2349 96.9858 24.0526 96.9858 26.0797C96.9858 27.8553 97.3834 29.4848 98.1693 30.921C98.9556 32.3595 100.068 33.4849 101.477 34.2654C102.884 35.045 104.51 35.4402 106.31 35.4402C108.411 35.4402 110.205 35.0202 111.643 34.1918L111.701 34.1585V30.1085L111.515 30.2441C110.864 30.7187 110.136 31.0975 109.352 31.3703C108.571 31.643 107.859 31.7808 107.234 31.7808C105.5 31.7808 104.107 31.2381 103.096 30.168C102.083 29.0965 101.57 27.592 101.57 25.6987C101.57 23.7936 102.105 22.2504 103.161 21.1117C104.213 19.9764 105.608 19.4005 107.307 19.4005C108.76 19.4005 110.176 19.8925 111.516 20.8642L111.701 20.9988V16.7314L111.641 16.6977C111.137 16.4155 110.449 16.1825 109.596 16.0058C108.746 15.8295 107.915 15.7407 107.125 15.7407ZM93.9412 16.1936H89.5205V34.9865H93.9412V16.1936ZM91.776 8.18776C91.0485 8.18776 90.4139 8.43544 89.8925 8.92626C89.369 9.41846 89.1035 10.0382 89.1035 10.7695C89.1035 11.4894 89.3658 12.0978 89.8844 12.5769C90.3996 13.0546 91.0362 13.2968 91.7762 13.2968C92.5161 13.2968 93.1551 13.0546 93.6764 12.5777C94.2012 12.0978 94.4673 11.4896 94.4673 10.7695C94.4673 10.0637 94.2083 9.45038 93.698 8.94609C93.1882 8.44278 92.5413 8.18776 91.776 8.18776ZM80.7462 14.8071V34.9865H85.2577V8.76305H79.0136L71.0769 28.241L63.3748 8.76305H56.8765V34.9863H61.1161V14.8051H61.2616L69.3948 34.9865H72.5943L80.6006 14.8071H80.7462Z" fill="white"/>
  <path d="M20.7961 20.7961H0V0H20.7961V20.7961Z" fill="#F1511B"/>
  <path d="M43.7572 20.7961H22.9614V0H43.7572V20.7961Z" fill="#80CC28"/>
  <path d="M20.7955 43.7655H0V22.9696H20.7955V43.7655Z" fill="#00ADEF"/>
  <path d="M43.7572 43.7655H22.9614V22.9696H43.7572V43.7655Z" fill="#FBBC09"/>
</svg>
